source/img/icon-tg.svg

<svg width="25" height="25" viewBox="0 0 25 25" fill="none" xmlns="http://www.w3.org/2000/svg">
<path fill-rule="evenodd" clip-rule="evenodd" d="M25 12.5C25 19.4035 19.4035 25 12.5 25C5.59646 25 0 19.4035 0 12.5C0 5.59646 5.59646 0 12.5 0C19.4035 0 25 5.59646 25 12.5ZM8.37057 11.3549C7.11839 11.9017 5.83182 12.4634 4.65534 13.1115C4.04103 13.5612 4.85749 13.8794 5.62349 14.1779C5.74526 14.2253 5.86573 14.2722 5.97901 14.3191C6.07328 14.3481 6.16911 14.3786 6.26625 14.4096C7.11818 14.681 8.06807 14.9836 8.89516 14.5284C10.2538 13.7479 11.5359 12.8456 12.8171 11.944C13.2369 11.6486 13.6565 11.3533 14.0787 11.0623C14.0985 11.0497 14.1208 11.0352 14.1452 11.0194C14.5048 10.7863 15.3137 10.2619 15.0145 10.9844C14.307 11.7582 13.5492 12.4431 12.7872 13.1318C12.2737 13.5959 11.7583 14.0617 11.2552 14.5576C10.817 14.9136 10.3619 15.6296 10.8526 16.1282C11.9828 16.9193 13.1306 17.6913 14.2777 18.4629C14.651 18.7139 15.0243 18.9649 15.3968 19.2166C16.0281 19.7207 17.0148 19.3129 17.1536 18.5253C17.2154 18.1629 17.2773 17.8006 17.3393 17.4383C17.6818 15.4358 18.0244 13.4327 18.3271 11.4237C18.3682 11.1085 18.4148 10.7934 18.4615 10.4782C18.5746 9.71406 18.6878 8.94901 18.7232 8.18078C18.632 7.41411 17.7024 7.58271 17.1852 7.7551C14.5262 8.76687 11.8938 9.85365 9.27182 10.9596C8.97479 11.0911 8.6737 11.2226 8.37057 11.3549Z"/>
</svg>

<svg width="25" height="25" viewBox="0 0 25 25" fill="none" xmlns="http://www.w3.org/2000/svg"><path clip-rule="evenodd" d="M25 12.5C25 19.404 19.404 25 12.5 25S0 19.404 0 12.5 5.596 0 12.5 0 25 5.596 25 12.5zM8.37 11.355c-1.252.547-2.538 1.108-3.715 1.756-.614.45.202.768.968 1.067.122.047.243.094.356.141l.287.09c.852.272 1.802.575 2.63.12 1.358-.781 2.64-1.683 3.921-2.585.42-.295.84-.59 1.262-.882l.066-.043c.36-.233 1.169-.757.87-.035-.708.774-1.466 1.46-2.228 2.148-.513.464-1.029.93-1.532 1.426-.438.356-.893 1.072-.402 1.57 1.13.791 2.278 1.563 3.425 2.335.373.25.746.502 1.119.754.631.504 1.618.096 1.757-.692l.185-1.087c.343-2.002.685-4.005.988-6.014.041-.316.088-.63.134-.946.114-.764.227-1.529.262-2.297-.091-.767-1.02-.598-1.538-.426-2.659 1.012-5.291 2.099-7.913 3.205l-.901.395z"/></svg>
